!!!OTL: O WIE WOHL ISTS JEDEM MENSCHEN
!!!ARE: Europa, Mitteleuropa, Deutschland, Hessen, Darmstadt,
!!    Wiesenbreidenbach
!!!SCT: E0660
!!!YEM: Copyright 1995, estate of Helmut Schaffrath.
**kern
*ICvox
*Ivox
*M3/4
*k[f#]
*G:
{8g
8a
=1
4b
4b
8g
8f#
=2
4a
4a}
{8b
8a
=3
4.g
8b
8dd
8cc
=4
4b
4r}
{8g
8a
=5
4b
4b
8g
8f#
=6
4a
4a}
{8b
8a
=7
4.g
8b
8dd
8cc
=8
4b
4r}
{8g
8a
=9
4b
4b
8a
8cc
=10
4b
4dd}
{8cc
8b
=11
4.a
8a
8b
8a
=12
4g
4r}
{8g
8a
=13
4b
4b
8a
8cc
=14
4b
4dd}
{8cc
8b
=15
4.a
8a
8b
8a
=16
4g
4r}
==
!!!AGN: Liebes - Lied
!!!ONB: ESAC (Essen Associative Code) Database: ERK2
!!!AMT: simple triple
!!!AIN: vox
!!!EED: Helmut Schaffrath
!!!EEV: 1.0
*-
